X: 1
T: Camhanaich Air Machair
C: Donald Shaw
M: 3/4
L: 1/8
R: Air
K: G
|: BA AG G2 | BA A2 A/G/E | BA AG G2 | BA A2 A/G/E |
DE EA B2 | DE EB A/G/E | DE EA B2 | D2 DB A/G/E :|
|: GA AB g2 | gf fe e/d/B | GA AB g2 | A2 BG A/G/E :|
